packages/sources/icons/src/vitamix/calendar-date-line.svg

<svg width="16" height="16" viewBox="0 0 16 16" fill="none" xmlns="http://www.w3.org/2000/svg">
<path fill-rule="evenodd" clip-rule="evenodd" d="M11.3333 2.66666H14C14.3682 2.66666 14.6667 2.96514 14.6667 3.33333V14C14.6667 14.3682 14.3682 14.6667 14 14.6667H2C1.63181 14.6667 1.33333 14.3682 1.33333 14V3.33333C1.33333 2.96514 1.63181 2.66666 2 2.66666H4.66667V1.33333H6V2.66666H10V1.33333H11.3333V2.66666ZM5.51693 12.0781C6.1237 12.0781 6.61133 11.9258 6.97982 11.6211C7.34831 11.3164 7.53255 10.9115 7.53255 10.4062C7.53255 10.0937 7.45377 9.82291 7.29622 9.59374C7.13867 9.36458 6.89974 9.1927 6.57943 9.07812C6.83724 8.96093 7.04557 8.79296 7.20443 8.57421C7.36328 8.35546 7.44271 8.11588 7.44271 7.85546C7.44271 7.35026 7.27213 6.95377 6.93099 6.66601C6.58984 6.37825 6.11849 6.23437 5.51693 6.23437C5.17057 6.23437 4.85351 6.30078 4.56575 6.43359C4.27799 6.5664 4.05404 6.75065 3.89388 6.98632C3.73372 7.222 3.65364 7.48828 3.65364 7.78515H4.78255C4.78255 7.59505 4.85547 7.44075 5.0013 7.32226C5.14713 7.20377 5.32812 7.14453 5.54427 7.14453C5.78385 7.14453 5.972 7.20833 6.10872 7.33593C6.24544 7.46354 6.3138 7.64192 6.3138 7.87109C6.3138 8.10807 6.24479 8.29817 6.10677 8.4414C5.96875 8.58463 5.75651 8.65624 5.47005 8.65624H4.86849V9.53906H5.46614C6.09114 9.53906 6.40364 9.82291 6.40364 10.3906C6.40364 10.625 6.32747 10.8131 6.17513 10.9551C6.02279 11.097 5.8125 11.168 5.54427 11.168C5.30989 11.168 5.11263 11.1003 4.95247 10.9648C4.79232 10.8294 4.71224 10.6549 4.71224 10.4414H3.58333C3.58333 10.9336 3.76367 11.3294 4.12435 11.6289C4.48502 11.9284 4.94922 12.0781 5.51693 12.0781ZM10.2201 12.0781C10.8477 12.0781 11.3242 11.8698 11.6497 11.4531C11.9753 11.0365 12.138 10.4349 12.138 9.64843V8.60156C12.1302 7.83854 11.9622 7.25325 11.6341 6.8457C11.306 6.43815 10.832 6.23437 10.2122 6.23437C9.59245 6.23437 9.11784 6.4401 8.78841 6.85156C8.45898 7.26302 8.29427 7.86588 8.29427 8.66015V9.70703C8.30208 10.47 8.47005 11.056 8.79818 11.4648C9.1263 11.8737 9.60026 12.0781 10.2201 12.0781ZM9.61263 10.8301C9.73893 11.0553 9.9414 11.168 10.2201 11.168C10.4961 11.168 10.6953 11.0599 10.8177 10.8437C10.9401 10.6276 11.0039 10.2969 11.0091 9.85156V8.5C11.0091 8.02864 10.9447 7.68554 10.8158 7.4707C10.6868 7.25585 10.4857 7.14843 10.2122 7.14843C9.94661 7.14843 9.75065 7.25065 9.62435 7.45507C9.49804 7.6595 9.43099 7.97916 9.42318 8.41406V9.79687C9.42318 10.2604 9.48633 10.6048 9.61263 10.8301ZM6 3.99999H10V5.33333H11.3333V3.99999H13.3333V13.3267H2.66667V3.99999H4.66667V5.33333H6V3.99999Z" fill="#001018"/>
</svg>

<svg width="16" height="16" fill="none" xmlns="http://www.w3.org/2000/svg"><path fill-rule="evenodd" clip-rule="evenodd" d="M11.333 2.667H14c.368 0 .667.298.667.666V14a.667.667 0 0 1-.667.667H2A.667.667 0 0 1 1.333 14V3.333c0-.368.299-.666.667-.666h2.667V1.333H6v1.334h4V1.333h1.333v1.334zm-5.816 9.411c.607 0 1.094-.152 1.463-.457.368-.305.553-.71.553-1.215 0-.312-.08-.583-.237-.812-.157-.23-.396-.401-.717-.516.258-.117.467-.285.625-.504a1.19 1.19 0 0 0 .239-.719c0-.505-.17-.901-.512-1.189-.341-.288-.813-.432-1.414-.432-.346 0-.663.067-.951.2a1.6 1.6 0 0 0-.672.552c-.16.236-.24.502-.24.8h1.129a.57.57 0 0 1 .218-.464.833.833 0 0 1 .543-.177c.24 0 .428.063.565.19.136.129.205.307.205.536 0 .237-.07.427-.207.57-.138.144-.35.215-.637.215h-.602v.883h.598c.625 0 .938.284.938.852a.735.735 0 0 1-.229.564c-.152.142-.362.213-.63.213a.885.885 0 0 1-.593-.203.654.654 0 0 1-.24-.524H3.583c0 .493.18.888.541 1.188.361.3.825.45 1.393.45zm4.703 0c.628 0 1.104-.208 1.43-.625.325-.416.488-1.018.488-1.805V8.602c-.008-.763-.176-1.349-.504-1.756-.328-.408-.802-.612-1.422-.612-.62 0-1.094.206-1.424.618-.329.411-.494 1.014-.494 1.808v1.047c.008.763.176 1.349.504 1.758.328.409.802.613 1.422.613zm-.607-1.248c.126.225.328.338.607.338.276 0 .475-.108.598-.324.122-.216.186-.547.191-.992V8.5c0-.471-.064-.814-.193-1.03-.13-.214-.33-.322-.604-.322-.265 0-.461.103-.588.307-.126.205-.193.524-.2.96v1.382c0 .463.062.808.189 1.033zM6 4h4v1.333h1.333V4h2v9.327H2.667V4h2v1.333H6V4z" fill="#001018"/></svg>
